icons/drawio.svg

<svg width="16" height="16" viewBox="0 0 16 16" fill="none" xmlns="http://www.w3.org/2000/svg">
<path fill-rule="evenodd" clip-rule="evenodd" d="M6 4C6 3.44772 6.44772 3 7 3H9C9.55229 3 10 3.44772 10 4V6C10 6.19004 9.94699 6.36769 9.85495 6.51899L11.3244 9H13C13.5523 9 14 9.44771 14 10V12C14 12.5523 13.5523 13 13 13H11C10.4477 13 10 12.5523 10 12V10C10 9.78567 10.0674 9.58709 10.1822 9.42431L8.7464 7H7.33176L5.85869 9.4872C5.94842 9.63714 6 9.81255 6 10V12C6 12.5523 5.55228 13 5 13H3C2.44772 13 2 12.5523 2 12V10C2 9.44771 2.44772 9 3 9H4.73418L6.17562 6.56621C6.06485 6.40523 6 6.21019 6 6V4Z" fill="#E6C44C"/>
</svg>

<svg xmlns="http://www.w3.org/2000/svg" width="16" height="16" fill="none"><path fill="#E6C44C" fill-rule="evenodd" d="M6 4a1 1 0 0 1 1-1h2a1 1 0 0 1 1 1v2c0 .19-.053.368-.145.519L11.325 9H13a1 1 0 0 1 1 1v2a1 1 0 0 1-1 1h-2a1 1 0 0 1-1-1v-2c0-.214.067-.413.182-.576L8.746 7H7.332L5.859 9.487c.09.15.141.326.141.513v2a1 1 0 0 1-1 1H3a1 1 0 0 1-1-1v-2a1 1 0 0 1 1-1h1.734l1.442-2.434A.995.995 0 0 1 6 6V4Z" clip-rule="evenodd"/></svg>
